!!!COM: Janáček, Leoš [Leo Eugen]
!!!OTL: Idyla (Idyll) for String Orchestra
!!!OMV: II: Allegro - Moderato - Tempo I
!!!example: 138
!!!work: Jan-4
**kern	**dynam	**kern	**dynam	**kern	**dynam	**kern	**dynam	**kern	**dynam
*part5	*part5	*part4	*part4	*part3	*part3	*part2	*part2	*part1	*part1
*staff5	*	*staff4	*	*staff3	*	*staff2	*	*staff1	*
*I"Contrabass	*	*I"Violoncello	*	*I"Viola	*	*I"Violin II	*	*I"Violin I	*
*I'Cb.	*	*I'Vc.	*	*I'Vla.	*	*I'Vln. II	*	*I'Vln. I	*
*clefF4	*	*clefF4	*	*clefC3	*	*clefG2	*	*clefG2	*
*k[f#c#]	*	*k[f#c#]	*	*k[f#c#]	*	*k[f#c#]	*	*k[f#c#]	*
*D:	*	*D:	*	*D:	*	*D:	*	*D:	*
*M3/4	*	*M3/4	*	*M3/4	*	*M3/4	*	*M3/4	*
*MM121	*	*MM121	*	*MM121	*	*MM121	*	*MM121	*
=16	=16	=16	=16	=16	=16	=16	=16	=16	=16
2.r	.	4r	.	(4c#	.	(4e#X	.	12aaL	.
.	.	.	.	.	.	.	.	12gg#X	.
.	.	.	.	.	.	.	.	12cc#J	.
.	.	(4G#X	.	4f#)	.	4g#X)	.	12ee#XL	.
.	.	.	.	.	.	.	.	12dd#X	.
.	.	.	.	.	.	.	.	12b#XJ	.
.	.	[4c#)	>	[4e#X	>	(4e#	>	12cc#L	>
.	.	.	.	.	.	.	.	12aa#X	.
.	.	.	.	.	.	.	.	12gg#J	.
=17	=17	=17	=17	=17	=17	=17	=17	=17	=17
2.r	.	4c#]	.	4e#]	.	4g#X	.	12ee#XL	.
.	.	.	.	.	.	.	.	12dd#X	.
.	.	.	.	.	.	.	.	12g#XJ	.
.	.	2C#	]]	(12e#XL	] p	4e#X)	]	4e#X	.
.	.	.	.	12G#X	.	.	.	.	.
.	.	.	.	12c#J	.	.	.	.	.
.	.	.	.	12d#XL	.	(4ee#X	p	(4ee#	] p
.	.	.	.	12c#	.	.	.	.	.
.	.	.	.	12G#J)	.	.	.	.	.
=18||	=18||	=18||	=18||	=18||	=18||	=18||	=18||	=18||	=18||
*k[b-e-a-d-g-]	*	*k[b-e-a-d-g-]	*	*k[b-e-a-d-g-]	*	*k[b-e-a-d-g-]	*	*k[b-e-a-d-g-]	*
*D-:	*	*D-:	*	*D-:	*	*D-:	*	*D-:	*
4DD-	p	4D-	p	(12FL	p	4dd-X)	.	4ff)	.
.	.	.	.	12A-	.	.	.	.	.
.	.	.	.	12d-J)	.	.	.	.	.
4r	.	(4D-	<	(12e-L	.	4r	.	(4ff	<
.	.	.	.	12d-	.	.	.	.	.
.	.	.	.	12A-J	.	.	.	.	.
4r	.	4G-)	[	12B-L	.	4r	.	4gg-)	[[
.	.	.	.	12c	.	.	.	.	.
.	.	.	.	12g-J)	.	.	.	.	.
=19	=19	=19	=19	=19	=19	=19	=19	=19	=19
4AAA-	.	(4A-	>	(12e-L	.	2.A-	> p ]]	(4.ff	>
.	.	.	.	12d-	.	.	.	.	.
.	.	.	.	12A-J	.	.	.	.	.
4r	.	4AA-	]	12G-L	.	.	.	.	.
.	.	.	.	12A-	.	.	.	.	.
.	.	.	.	.	.	.	.	8ee-	.
.	.	.	.	12cJ)	.	.	.	.	.
4r	.	[4D-)	.	(12d-L	.	.	.	4dd-)	]
.	.	.	.	12B-	.	.	.	.	.
.	.	.	.	12A-J	.	.	.	.	.
=20	=20	=20	=20	=20	=20	=20	=20	=20	=20
!!linebreak:original
4r	.	4D-]	.	12FL	.	2.r	.	4r	.
.	.	.	.	12A-	.	.	.	.	.
.	.	.	.	12d-J)	.	.	.	.	.
4DD-	.	(4D-	.	(12e-L	.	.	.	4ff	<
.	.	.	.	12d-	.	.	.	.	.
.	.	.	.	12A-J	.	.	.	.	.
4GG-	.	4G-)	.	12B-L	.	.	.	(8gg-L	.
.	.	.	.	12e-	.	.	.	.	.
.	.	.	.	.	.	.	.	8ffJ)	[[
.	.	.	.	12g-J)	.	.	.	.	.
=21	=21	=21	=21	=21	=21	=21	=21	=21	=21
4AA-	.	(4A-	.	(12e-L	.	2.a-	>]	(4ff	>
.	.	.	.	12d-	.	.	.	.	.
.	.	.	.	12A-J	.	.	.	.	.
4r	.	4AA-	.	12G-L	.	.	.	4ee-	.
.	.	.	.	12A-	.	.	.	.	.
.	.	.	.	12cJ)	.	.	.	.	.
4r	.	4D-)	.	(12d-L	.	.	.	4dd-)	]]
.	.	.	.	12B-	.	.	.	.	.
.	.	.	.	12A-J	.	.	.	.	.
=22	=22	=22	=22	=22	=22	=22	=22	=22	=22
2.r	.	4r	.	4D-)	.	(12fL	p	(12fL	p
.	.	.	.	.	.	12a-	.	12a-	.
.	.	.	.	.	.	12dd-J)	.	12dd-J)	.
.	.	(4F	< mf	(4F	mf	(12ee-L	.	(12ee-L	.
.	.	.	.	.	.	12dd-	.	12dd-	.
.	.	.	.	.	.	12a-J	.	12a-J	.
.	.	4d-)	[[	4d-)	.	12fL	.	12fL	.
.	.	.	.	.	.	12a-	.	12a-	.
.	.	.	.	.	.	12dd-J)	.	12dd-J)	.
=23	=23	=23	=23	=23	=23	=23	=23	=23	=23
4FF	p	(4An	>	(4An	>	(12ffL	.	(12ffL	.
.	.	.	.	.	.	12ee-	.	12ee-	.
.	.	.	.	.	.	12ccJ	.	12ccJ	.
4r	.	4c	.	4c	.	12fL	.	12fL	.
.	.	.	.	.	.	12an	.	12an	.
.	.	.	.	.	.	12ccJ)	.	12ccJ)	.
4BB-	.	4B-)	]]	4B-)	]]	(12ee-L	.	(12ee-L	.
.	.	.	.	.	.	12dd-	.	12dd-	.
.	.	.	.	.	.	12b-J)	.	12b-J)	.
=	=	=	=	=	=	=	=	=	=
*-	*-	*-	*-	*-	*-	*-	*-	*-	*-
!!!system-decoration: [(s1,s2,s3,s4,s5)]
!!!CDT: 1854/07/03-1928/08/12
!!!CBL: Hukvaldy, Moravia
!!!CDL: Moravaská Ostrava, Czech Republic
!!!CNT: Czech
!!!AGN: Orchestral; Symphonic
!!!MCN: Janáček, Leoš
!!!MDT: 1878/12/15
!!!MGN: Brno Beseda
!!!MLC: Brno, Czechia
!!!MPD: 1878
!!!MPN:
!!!ODT: 1878
!!!PDT: 1951
!!!excerpt-start-measure: 16
!!!excerpt-end-measure: 23
!!!excerpt-start-time: 0:21
!!!excerpt-end-time: 0:33
!!!EEV: 2020/01/22
!!!ONB: Converted from MusicXML on 2020/01/22
